static/logos/productboard-wordmark-color.svg

<svg width="100" height="13" viewBox="0 0 100 13" fill="none" xmlns="http://www.w3.org/2000/svg">
<g clip-path="url(#clip0_1_1479)">
<path d="M5.41043 6.34087L10.8209 11.667H0L5.41043 6.34087Z" fill="#FF2638"/>
<path d="M0 1.01477L5.41043 6.34086L10.8209 1.01477H0Z" fill="#FFC600"/>
<path d="M5.41406 6.34086L10.8245 11.667L16.2349 6.34086L10.8245 1.01477L5.41406 6.34086Z" fill="#0079F2"/>
<path d="M97.9151 3.53913C97.9151 3.61652 97.8082 3.65043 97.7577 3.5913C97.3621 3.1313 96.7082 2.78261 95.8134 2.78261C93.8768 2.78261 92.776 4.34609 92.776 6.23913C92.776 8.12 93.8768 9.68261 95.8134 9.68261C96.7203 9.68261 97.429 9.36522 97.869 8.81739C97.9186 8.75652 98.029 8.78956 98.029 8.86783V9.45304C98.029 9.49652 98.0638 9.5313 98.1064 9.5313H99.3429C99.3864 9.5313 99.4212 9.49652 99.4212 9.45304V0.0782609C99.4212 0.0575048 99.4134 0.0375989 99.3986 0.0229221C99.3838 0.00824532 99.3638 0 99.3429 0H97.9925C97.9716 0.000228958 97.9525 0.00857524 97.9377 0.0232273C97.9229 0.0378793 97.9151 0.0576546 97.9151 0.0782609V3.53913ZM97.9777 6.23913C97.9777 7.42174 97.2821 8.3487 96.1299 8.3487C94.9908 8.3487 94.2821 7.42087 94.2821 6.23913C94.2821 5.03217 94.9908 4.11739 96.1299 4.11739C97.2821 4.11739 97.9777 5.03217 97.9777 6.23913ZM92.4003 2.95652C92.4003 2.93701 92.3934 2.91819 92.3795 2.90384C92.3664 2.8895 92.3482 2.88066 92.329 2.87913C92.2812 2.87543 92.2325 2.87311 92.1847 2.87217C91.2542 2.87217 90.7125 3.24522 90.4142 3.61043C90.3638 3.6713 90.2482 3.63826 90.2482 3.55826V3.01304C90.2482 2.99243 90.2403 2.97266 90.2255 2.95801C90.2108 2.94336 90.1916 2.93501 90.1708 2.93478H88.9334C88.9125 2.93501 88.8934 2.94336 88.8786 2.95801C88.8638 2.97266 88.856 2.99243 88.856 3.01304V9.45304C88.856 9.49652 88.8908 9.5313 88.9334 9.5313H90.2847C90.3055 9.53104 90.3247 9.5227 90.3395 9.50809C90.3542 9.49339 90.3621 9.47365 90.3621 9.45304V6.1C90.3621 4.8287 90.9951 4.26956 92.0586 4.26956C92.149 4.26956 92.2447 4.27826 92.3108 4.28435C92.3221 4.28556 92.3334 4.28444 92.3438 4.28109C92.3542 4.27773 92.3647 4.2722 92.3725 4.26484C92.3812 4.2575 92.3882 4.24848 92.3925 4.23837C92.3977 4.22825 92.4003 4.21726 92.4003 4.20609V2.95652ZM86.0221 6.44348C86.0332 6.44185 86.0445 6.44264 86.0553 6.44579C86.0661 6.44893 86.0761 6.45436 86.0845 6.4617C86.093 6.46904 86.0998 6.47813 86.1045 6.48834C86.1092 6.49855 86.1116 6.50964 86.1116 6.52087V6.84956C86.1116 7.73913 85.5168 8.50174 84.3012 8.50174C83.5795 8.50174 83.136 8.26 83.136 7.63739C83.136 7.18 83.4403 6.83739 84.3647 6.69652L86.0221 6.44435V6.44348ZM83.9977 9.68348C84.9342 9.68348 85.6386 9.41043 86.0951 8.87478C86.1447 8.81565 86.2534 8.8487 86.2569 8.92696C86.2751 9.30522 86.329 9.53043 86.3395 9.53043H87.6516C87.7073 9.53043 87.7464 9.47304 87.729 9.42C87.6377 9.1313 87.5795 8.66348 87.5795 8.28522V5.24783C87.5795 3.73565 86.6682 2.78261 84.7447 2.78261C82.8064 2.78261 82.0125 3.79826 81.856 4.92087C81.8548 4.93167 81.8558 4.9426 81.8591 4.95296C81.8624 4.96331 81.8678 4.97286 81.875 4.98098C81.8822 4.9891 81.8911 4.99561 81.901 5.00009C81.9108 5.00457 81.9216 5.0069 81.9325 5.00696H83.2482C83.2864 5.00696 83.3177 4.97913 83.3264 4.94174C83.449 4.37043 83.9134 4.0287 84.7064 4.0287C85.6047 4.0287 86.1116 4.43478 86.1116 5.23565V5.26956C86.1116 5.28836 86.1049 5.30651 86.0926 5.32072C86.0802 5.33493 86.0633 5.34424 86.0447 5.34696L84.2125 5.60435C82.4786 5.84522 81.6942 6.56956 81.6942 7.68783C81.6942 8.81826 82.3647 9.68348 83.9977 9.68348ZM77.7073 9.68348C79.8082 9.68348 81.1247 8.09478 81.1247 6.24C81.1247 4.38435 79.8082 2.78261 77.7073 2.78261C75.6186 2.78261 74.3029 4.38435 74.3029 6.23913C74.3029 8.09478 75.6186 9.68261 77.7073 9.68261V9.68348ZM75.809 6.24C75.809 4.95565 76.6186 4.11739 77.7073 4.11739C78.809 4.11739 79.6186 4.95565 79.6186 6.23913C79.6186 7.51043 78.809 8.3487 77.7073 8.3487C76.6186 8.3487 75.809 7.51043 75.809 6.23913V6.24ZM68.756 3.5913C68.7055 3.65043 68.5995 3.61652 68.5995 3.53913V0.0782609C68.5995 0.0575048 68.5912 0.0375989 68.5765 0.0229221C68.5618 0.00824532 68.542 0 68.5212 0H67.1708C67.15 0 67.1301 0.00824532 67.1154 0.0229221C67.1008 0.0375989 67.0925 0.0575048 67.0925 0.0782609V9.45217C67.0925 9.49565 67.1273 9.53043 67.1708 9.53043H68.4073C68.4508 9.53043 68.4855 9.49565 68.4855 9.45217V8.86087C68.4855 8.78261 68.5934 8.74956 68.6421 8.81043C69.0916 9.36261 69.8012 9.68348 70.7003 9.68348C72.649 9.68348 73.7508 8.12 73.7508 6.24C73.7508 4.34609 72.649 2.78261 70.7003 2.78261C69.816 2.78261 69.1542 3.1313 68.756 3.5913ZM68.5482 6.23913C68.5482 5.03217 69.2438 4.11739 70.396 4.11739C71.5351 4.11739 72.2447 5.03217 72.2447 6.23913C72.2447 7.42174 71.5351 8.3487 70.396 8.3487C69.2447 8.3487 68.5482 7.42087 68.5482 6.23913ZM65.8134 8.28783C65.813 8.2756 65.81 8.26361 65.8044 8.25269C65.7989 8.24177 65.7911 8.2322 65.7815 8.22465C65.7718 8.2171 65.7607 8.21177 65.7488 8.20901C65.7369 8.20624 65.7244 8.20614 65.7125 8.2087C65.6255 8.22609 65.4916 8.24783 65.3455 8.24783C64.8264 8.24783 64.6116 7.99304 64.6116 7.47217V4.22C64.6118 4.19939 64.6202 4.17971 64.6348 4.16523C64.6495 4.15073 64.6693 4.14261 64.6899 4.14261H65.7612C65.8047 4.14261 65.8395 4.10783 65.8395 4.06435V3.01478C65.8395 2.99403 65.8312 2.97412 65.8165 2.95944C65.8018 2.94477 65.782 2.93652 65.7612 2.93652H64.689C64.6788 2.93652 64.6686 2.9345 64.659 2.93057C64.6495 2.92663 64.6409 2.92087 64.6336 2.9136C64.6264 2.90633 64.6207 2.8977 64.6167 2.88821C64.6128 2.87871 64.6108 2.86854 64.6108 2.85826V1.29913C64.6108 1.27852 64.6026 1.25875 64.5882 1.2441C64.5736 1.22944 64.554 1.2211 64.5334 1.22087H63.1829C63.1622 1.22087 63.1422 1.22911 63.1275 1.24379C63.1129 1.25847 63.1047 1.27837 63.1047 1.29913V2.85913C63.1047 2.86941 63.1027 2.87958 63.0987 2.88908C63.0948 2.89857 63.089 2.9072 63.0817 2.91447C63.0745 2.92174 63.0658 2.9275 63.0563 2.93143C63.0468 2.93537 63.0367 2.93739 63.0264 2.93739H62.1829C62.1623 2.93739 62.1425 2.94551 62.1279 2.96001C62.1132 2.9745 62.1048 2.99417 62.1047 3.01478V4.06609C62.1047 4.10957 62.1395 4.14435 62.1829 4.14435H63.0264C63.0699 4.14435 63.1047 4.17913 63.1047 4.22174V7.62609C63.1047 8.8713 63.6873 9.57043 65.029 9.57043C65.4012 9.57043 65.6499 9.5287 65.756 9.50696C65.7725 9.5033 65.7873 9.49409 65.7978 9.48069C65.8082 9.46739 65.8137 9.45087 65.8134 9.43391V8.28783ZM55.189 6.23913C55.189 8.14522 56.5308 9.68261 58.4673 9.68261C60.3682 9.68261 61.3542 8.39043 61.5664 7.23043C61.5683 7.21947 61.5678 7.20821 61.5649 7.19747C61.5619 7.18672 61.5567 7.17677 61.5495 7.16829C61.5422 7.15982 61.5332 7.15304 61.523 7.14845C61.5129 7.14387 61.5019 7.14157 61.4908 7.14174H60.0977C60.0802 7.1419 60.0633 7.14776 60.0495 7.15843C60.0357 7.16911 60.0257 7.18402 60.0212 7.20087C59.8264 7.88 59.2421 8.3487 58.4542 8.3487C57.3786 8.3487 56.6951 7.47217 56.6951 6.23913C56.6951 4.99391 57.3786 4.11739 58.4542 4.11739C59.2421 4.11739 59.8264 4.58609 60.0212 5.26522C60.0308 5.3 60.0621 5.32435 60.0977 5.32435H61.4908C61.5019 5.32451 61.5129 5.32223 61.523 5.31763C61.5332 5.31304 61.5422 5.30627 61.5495 5.2978C61.5567 5.28933 61.5619 5.27936 61.5649 5.26862C61.5678 5.25788 61.5683 5.24662 61.5664 5.23565C61.3542 4.07565 60.3682 2.78348 58.4673 2.78348C56.5308 2.78348 55.189 4.32087 55.189 6.23913ZM52.6525 6.73478C52.6525 7.81478 52.0708 8.38696 51.1342 8.38696C50.2229 8.38696 49.856 7.78956 49.856 6.88783V3.01304C49.856 2.99229 49.8477 2.97238 49.833 2.9577C49.8183 2.94303 49.7985 2.93478 49.7777 2.93478H48.4273C48.4065 2.93478 48.3866 2.94303 48.3719 2.9577C48.3573 2.97238 48.349 2.99229 48.349 3.01304V7.0913C48.349 8.6287 49.1725 9.68261 50.7664 9.68261C51.6516 9.68261 52.256 9.34957 52.5942 8.93652C52.6455 8.87391 52.7673 8.90956 52.7673 8.99043V9.45304C52.7673 9.49652 52.8021 9.5313 52.8455 9.5313H54.0812C54.1247 9.5313 54.1595 9.49652 54.1595 9.45304V3.01304C54.1595 2.99229 54.1512 2.97238 54.1365 2.9577C54.1218 2.94303 54.102 2.93478 54.0812 2.93478H52.7308C52.71 2.93478 52.6901 2.94303 52.6754 2.9577C52.6608 2.97238 52.6525 2.99229 52.6525 3.01304V6.73478ZM45.6873 3.53913C45.6873 3.61652 45.5803 3.65043 45.5299 3.5913C45.1342 3.1313 44.4803 2.78261 43.5855 2.78261C41.649 2.78261 40.5473 4.34609 40.5473 6.23913C40.5473 8.12 41.649 9.68261 43.5855 9.68261C44.4916 9.68261 45.2003 9.36522 45.6412 8.81739C45.6908 8.75652 45.8003 8.78956 45.8003 8.86783V9.45304C45.8003 9.49652 45.8351 9.5313 45.8786 9.5313H47.1151C47.1586 9.5313 47.1934 9.49652 47.1934 9.45304V0.0782609C47.1934 0.0575048 47.1851 0.0375989 47.1704 0.0229221C47.1557 0.00824532 47.1359 0 47.1151 0H45.7647C45.7439 0 45.724 0.00824532 45.7093 0.0229221C45.6947 0.0375989 45.6864 0.0575048 45.6864 0.0782609V3.53913H45.6873ZM45.7499 6.23913C45.7499 7.42174 45.0542 8.3487 43.9021 8.3487C42.7629 8.3487 42.0534 7.42087 42.0534 6.23913C42.0534 5.03217 42.7629 4.11739 43.9021 4.11739C45.0534 4.11739 45.7499 5.03217 45.7499 6.23913ZM36.5221 9.68348C38.6238 9.68348 39.9395 8.09478 39.9395 6.24C39.9395 4.38348 38.6247 2.78261 36.5221 2.78261C34.4342 2.78261 33.1177 4.38435 33.1177 6.23913C33.1177 8.09478 34.4342 9.68261 36.5221 9.68261V9.68348ZM34.6238 6.24C34.6238 4.95565 35.4334 4.11739 36.5221 4.11739C37.6238 4.11739 38.4334 4.95565 38.4334 6.23913C38.4334 7.51043 37.6238 8.3487 36.5221 8.3487C35.4334 8.3487 34.6238 7.51043 34.6238 6.23913V6.24ZM32.9447 2.95652C32.9448 2.93701 32.9374 2.91819 32.9242 2.90384C32.9109 2.8895 32.8928 2.88066 32.8734 2.87913C32.8256 2.87543 32.7777 2.87311 32.7299 2.87217C31.7995 2.87217 31.2568 3.24522 30.9586 3.61043C30.9082 3.6713 30.7934 3.63826 30.7934 3.55826V3.01304C30.7934 2.99229 30.7851 2.97238 30.7704 2.9577C30.7557 2.94303 30.7359 2.93478 30.7151 2.93478H29.4786C29.4578 2.93478 29.4379 2.94303 29.4232 2.9577C29.4086 2.97238 29.4003 2.99229 29.4003 3.01304V9.45304C29.4003 9.49652 29.4351 9.5313 29.4786 9.5313H30.829C30.8725 9.5313 30.9073 9.49652 30.9073 9.45304V6.1C30.9073 4.8287 31.5395 4.26956 32.6029 4.26956C32.6942 4.26956 32.789 4.27826 32.8551 4.28435C32.8662 4.28556 32.8775 4.28444 32.8881 4.28109C32.8988 4.27773 32.9086 4.2722 32.917 4.26484C32.9255 4.2575 32.9322 4.24848 32.937 4.23837C32.9417 4.22825 32.9443 4.21726 32.9447 4.20609V2.95652ZM23.3186 8.93217C23.3186 8.85391 23.4264 8.82 23.4777 8.88C23.8751 9.34522 24.5368 9.68348 25.4203 9.68348C27.369 9.68348 28.4708 8.12 28.4708 6.24C28.4708 4.34609 27.369 2.78261 25.4203 2.78261C24.5203 2.78261 23.8108 3.11391 23.3612 3.66087C23.3125 3.72087 23.2047 3.68696 23.2047 3.6087V3.01304C23.2047 2.99229 23.1964 2.97238 23.1817 2.9577C23.167 2.94303 23.1472 2.93478 23.1264 2.93478H21.8908C21.87 2.93478 21.8501 2.94303 21.8354 2.9577C21.8208 2.97238 21.8125 2.99229 21.8125 3.01304V12.0957C21.8125 12.1391 21.8473 12.1739 21.8908 12.1739H23.2412C23.2847 12.1739 23.3195 12.1391 23.3195 12.0957V8.93217H23.3186ZM23.2682 6.23913C23.2682 5.01913 23.9638 4.0913 25.116 4.0913C26.2551 4.0913 26.9647 5.01913 26.9647 6.23913C26.9647 7.42174 26.2551 8.3487 25.116 8.3487C23.9647 8.3487 23.2682 7.42087 23.2682 6.23913Z" fill="#000C2C"/>
</g>
<defs>
<clipPath id="clip0_1_1479">
<rect width="100" height="12.1739" fill="white"/>
</clipPath>
</defs>
</svg>

<svg xmlns="http://www.w3.org/2000/svg" width="492.308" height="64" fill="none" viewBox="0 0 100 13"><g clip-path="url(#a)"><path fill="#FF2638" d="m5.41 6.34 5.41 5.327H0l5.41-5.326Z"/><path fill="#FFC600" d="M0 1.015 5.41 6.34l5.41-5.326H0Z"/><path fill="#0079F2" d="m5.414 6.34 5.41 5.327 5.41-5.326-5.41-5.326-5.41 5.326Z"/><path fill="#000C2C" d="M97.915 3.54c0 .077-.107.11-.157.051-.396-.46-1.05-.808-1.945-.808-1.936 0-3.037 1.563-3.037 3.456 0 1.881 1.1 3.444 3.037 3.444.907 0 1.616-.318 2.056-.866.05-.06.16-.027.16.05v.586c0 .044.035.078.077.078h1.237a.078.078 0 0 0 .078-.078V.078A.077.077 0 0 0 99.343 0h-1.35a.078.078 0 0 0-.078.078V3.54Zm.063 2.7c0 1.182-.696 2.109-1.848 2.109-1.14 0-1.848-.928-1.848-2.11 0-1.207.709-2.122 1.848-2.122 1.152 0 1.848.915 1.848 2.122ZM92.4 2.956a.075.075 0 0 0-.02-.053.077.077 0 0 0-.051-.025 2.524 2.524 0 0 0-.144-.007c-.93 0-1.472.373-1.77.738-.051.061-.167.028-.167-.052v-.545c0-.02-.008-.04-.023-.055a.078.078 0 0 0-.054-.023h-1.238a.078.078 0 0 0-.077.078v6.44c0 .044.035.078.077.078h1.352a.079.079 0 0 0 .077-.078V6.1c0-1.271.633-1.83 1.697-1.83.09 0 .186.008.252.014a.08.08 0 0 0 .081-.046.07.07 0 0 0 .008-.032v-1.25Zm-6.378 3.486a.078.078 0 0 1 .09.078v.329c0 .89-.595 1.652-1.81 1.652-.723 0-1.166-.242-1.166-.865 0-.457.304-.8 1.229-.94l1.657-.253Zm-2.024 3.24c.936 0 1.64-.273 2.097-.808.05-.06.158-.026.162.052.018.378.072.603.082.603h1.313c.055 0 .094-.057.077-.11-.091-.289-.15-.757-.15-1.135V5.248c0-1.512-.91-2.465-2.834-2.465-1.939 0-2.733 1.015-2.889 2.138a.077.077 0 0 0 .077.086h1.315c.038 0 .07-.028.078-.065.123-.572.587-.913 1.38-.913.899 0 1.406.406 1.406 1.207v.034a.078.078 0 0 1-.067.077l-1.832.257c-1.734.241-2.519.966-2.519 2.084 0 1.13.67 1.995 2.304 1.995Zm-6.29 0c2.1 0 3.417-1.588 3.417-3.443 0-1.856-1.317-3.457-3.418-3.457-2.088 0-3.404 1.601-3.404 3.456 0 1.856 1.316 3.444 3.404 3.444ZM75.808 6.24c0-1.284.81-2.123 1.898-2.123 1.102 0 1.912.839 1.912 2.122 0 1.271-.81 2.11-1.912 2.11-1.088 0-1.898-.839-1.898-2.11v.001Zm-7.053-2.649c-.05.06-.156.026-.156-.052V.08A.078.078 0 0 0 68.52 0h-1.35a.078.078 0 0 0-.079.078v9.374c0 .044.035.078.079.078h1.236a.078.078 0 0 0 .079-.078v-.591c0-.078.107-.111.156-.05.45.552 1.16.872 2.058.872 1.949 0 3.05-1.563 3.05-3.443 0-1.894-1.101-3.457-3.05-3.457-.884 0-1.546.348-1.944.808Zm-.208 2.648c0-1.207.696-2.122 1.848-2.122 1.14 0 1.849.915 1.849 2.122 0 1.183-.71 2.11-1.849 2.11-1.151 0-1.848-.928-1.848-2.11Zm-2.735 2.049a.083.083 0 0 0-.032-.063.084.084 0 0 0-.069-.016c-.087.017-.22.039-.367.039-.519 0-.733-.255-.733-.776V4.22a.078.078 0 0 1 .078-.077h1.071a.078.078 0 0 0 .079-.079v-1.05a.078.078 0 0 0-.079-.077H64.69a.08.08 0 0 1-.055-.023.08.08 0 0 1-.023-.056V1.3a.079.079 0 0 0-.078-.078h-1.35a.079.079 0 0 0-.078.078v1.56a.077.077 0 0 1-.023.055.077.077 0 0 1-.056.023h-.843a.078.078 0 0 0-.078.078v1.051c0 .044.035.078.078.078h.843c.044 0 .079.035.079.078v3.404c0 1.245.582 1.944 1.924 1.944.372 0 .62-.041.727-.063a.073.073 0 0 0 .057-.073V8.288ZM55.19 6.239c0 1.906 1.342 3.444 3.278 3.444 1.901 0 2.887-1.293 3.1-2.453a.076.076 0 0 0-.017-.062.076.076 0 0 0-.06-.026h-1.392a.08.08 0 0 0-.077.059c-.195.679-.779 1.148-1.567 1.148-1.075 0-1.759-.877-1.759-2.11 0-1.245.684-2.122 1.76-2.122.787 0 1.371.47 1.566 1.148.01.035.041.06.077.06h1.393a.075.075 0 0 0 .059-.027.077.077 0 0 0 .016-.062c-.212-1.16-1.198-2.453-3.099-2.453-1.936 0-3.278 1.538-3.278 3.456Zm-2.536.496c0 1.08-.582 1.652-1.519 1.652-.911 0-1.278-.597-1.278-1.5V3.014a.078.078 0 0 0-.078-.078h-1.35a.078.078 0 0 0-.079.078v4.078c0 1.538.824 2.592 2.417 2.592.886 0 1.49-.333 1.828-.746.051-.063.173-.027.173.053v.463c0 .044.035.078.078.078h1.236a.078.078 0 0 0 .078-.078v-6.44a.078.078 0 0 0-.078-.078h-1.35a.078.078 0 0 0-.078.078v3.722Zm-6.966-3.196c0 .078-.107.111-.157.052-.396-.46-1.05-.808-1.944-.808-1.937 0-3.039 1.563-3.039 3.456 0 1.881 1.102 3.444 3.039 3.444.906 0 1.614-.318 2.055-.866.05-.06.16-.027.16.05v.586c0 .044.034.078.078.078h1.236a.078.078 0 0 0 .078-.078V.078A.078.078 0 0 0 47.115 0h-1.35a.078.078 0 0 0-.079.078V3.54h.001Zm.063 2.7c0 1.183-.696 2.11-1.848 2.11-1.14 0-1.849-.928-1.849-2.11 0-1.207.71-2.122 1.85-2.122 1.15 0 1.847.915 1.847 2.122Zm-9.228 3.444c2.102 0 3.418-1.588 3.418-3.443 0-1.857-1.315-3.457-3.418-3.457-2.088 0-3.404 1.601-3.404 3.456 0 1.856 1.316 3.444 3.404 3.444ZM34.624 6.24c0-1.284.81-2.123 1.898-2.123 1.102 0 1.911.839 1.911 2.122 0 1.271-.81 2.11-1.91 2.11-1.09 0-1.9-.839-1.9-2.11v.001Zm-1.68-3.283a.077.077 0 0 0-.07-.078 2.496 2.496 0 0 0-.144-.007c-.93 0-1.473.373-1.771.738-.05.061-.166.028-.166-.052v-.545a.078.078 0 0 0-.078-.078H29.48a.078.078 0 0 0-.079.078v6.44c0 .044.035.078.079.078h1.35a.078.078 0 0 0 .078-.078V6.1c0-1.271.633-1.83 1.696-1.83.091 0 .186.008.252.014a.08.08 0 0 0 .09-.078v-1.25ZM23.32 8.932c0-.078.107-.112.159-.052.397.465 1.059.803 1.942.803 1.949 0 3.05-1.563 3.05-3.443 0-1.894-1.101-3.457-3.05-3.457-.9 0-1.61.33-2.059.878-.049.06-.156.026-.156-.052v-.596a.078.078 0 0 0-.079-.078h-1.235a.078.078 0 0 0-.078.078v9.083c0 .043.034.078.078.078h1.35a.078.078 0 0 0 .079-.078V8.932h-.001Zm-.05-2.693c0-1.22.695-2.148 1.847-2.148 1.14 0 1.849.928 1.849 2.148 0 1.183-.71 2.11-1.849 2.11-1.151 0-1.848-.928-1.848-2.11Z"/></g><defs><clipPath id="a"><path fill="#fff" d="M0 0h100v12.174H0z"/></clipPath></defs></svg>
